X:1
T:Merton (Monk), 87.87
T:Merton (Monk), 87.87
T:William Henry Monk, 1850
T:Public Domain Courtesy of the Cyber Hymnal™
C:William Henry Monk, 1850
Z:Public Domain
Z:Courtesy of the Cyber Hymnal™
%%score ( 1 2 ) ( 3 4 )
L:1/8
Q:1/4=107
M:4/4
K:F
V:1 treble 
V:2 treble 
V:3 bass 
V:4 bass 
V:1
 [CF]2 [CA]2 [Cc]2 [Ec]2 | [FB]2 [Fd]2 [Fd]2 [Fc]2 | [FA]2 [F=B]2 [Ec]2 [Gc]2 | [Ad]2 d2 [Ec]4 | %4
 [Ec]2 B2 [FA]2 [Gc]2 | [FB]2 [FA]2 [EG]2 F2 | [DG]2 [^FA]2 [GB]2 [=FA]2 | [FG]2 [FG]2 F4 |] %8
V:2
 x8 | x8 | x8 | x2 (GF) x4 | x2 (FG) x4 | x6 F2 | x8 | x4 F4 |] %8
V:3
 [F,A,]2 [F,C]2 [E,G,]2 [C,G,]2 | [D,F,]2 B,2 B,2 [F,A,]2 | [F,C]2 [D,F,]2 [C,G,]2 [E,C]2 | %3
 [F,C]2 [G,=B,]2 [C,C]4 | [C,E]2 ([D,D][E,C]) [F,C]2 [E,C]2 | [D,D]2 [F,C]2 (CB,) [D,A,]2 | %6
 [B,,B,]2 [A,,C]2 [G,,D]2 [A,,C]2 | [B,,D]2 (CB,) [F,,F,A,]4 |] %8
V:4
 x8 | x2 (B,,C,) (D,E,) x2 | x8 | x8 | x8 | x4 C,2 x2 | x8 | x2 C,2 x4 |] %8

